fast-admin/src/assets/icons/cascader.svg

<svg t="1675604603623" class="icon" viewBox="0 0 1024 1024" version="1.1" xmlns="http://www.w3.org/2000/svg" p-id="1216" width="200" height="200"><path d="M832.128 768c33.194667 0 60.501333 25.173333 63.573333 57.813333L896 832a64 64 0 0 1-63.872 64h-298.922667A63.786667 63.786667 0 0 1 469.333333 832a64 64 0 0 1 63.872-64h298.922667zM213.333333 874.666667c-23.722667 0-42.666667-19.072-42.666666-42.624V362.666667A42.666667 42.666667 0 0 1 213.333333 320l4.992 0.298667c21.333333 2.432 37.674667 20.48 37.674667 42.325333L255.957333 490.666667h128.298667c21.248 0 39.594667 16.469333 42.112 37.674666L426.666667 533.333333l-0.298667 4.992a42.368 42.368 0 0 1-42.112 37.674667H256l0.042667 213.333333h128.256c22.869333 0 42.410667 19.114667 42.410666 42.666667l-0.298666 4.992a42.368 42.368 0 0 1-42.112 37.674667zM832.128 469.333333c33.194667 0 60.501333 25.173333 63.573333 57.813334L896 533.333333a64 64 0 0 1-63.872 64h-298.922667A63.786667 63.786667 0 0 1 469.333333 533.333333a64 64 0 0 1 63.872-64h298.922667z m-255.957333-341.333333c33.194667 0 60.458667 25.173333 63.573333 57.813333L640 192c0 35.328-29.013333 64-63.829333 64H191.829333A63.744 63.744 0 0 1 128 192C128 156.672 157.013333 128 191.829333 128h384.341334z" fill="#000000" p-id="1217"></path></svg>

<svg class="icon" viewBox="0 0 1024 1024" xmlns="http://www.w3.org/2000/svg" width="200" height="200"><path d="M832.128 768c33.195 0 60.501 25.173 63.573 57.813L896 832a64 64 0 0 1-63.872 64H533.205a63.787 63.787 0 0 1-63.872-64 64 64 0 0 1 63.872-64h298.923zM213.333 874.667c-23.722 0-42.666-19.072-42.666-42.624V362.667A42.667 42.667 0 0 1 213.333 320l4.992.299C239.66 322.73 256 340.779 256 362.624l-.043 128.043h128.299c21.248 0 39.595 16.469 42.112 37.674l.299 4.992-.299 4.992A42.368 42.368 0 0 1 384.256 576H256l.043 213.333h128.256c22.869 0 42.41 19.115 42.41 42.667l-.298 4.992a42.368 42.368 0 0 1-42.112 37.675zm618.795-405.334c33.195 0 60.501 25.174 63.573 57.814l.299 6.186a64 64 0 0 1-63.872 64H533.205a63.787 63.787 0 0 1-63.872-64 64 64 0 0 1 63.872-64h298.923zM576.171 128c33.194 0 60.458 25.173 63.573 57.813L640 192c0 35.328-29.013 64-63.83 64H191.83A63.744 63.744 0 0 1 128 192c0-35.328 29.013-64 63.83-64h384.34z"/></svg>
